!! 00000] TT[00
!!!OTL: Siji ge
!!!ARE: Asia, China,Qinghai
!! Ethnic Group: Han
!! Zhongguo Minge Xuan, S. 232
!!!SCT: C1152
!!!YEM: Copyright 1995, estate of Helmut Schaffrath.
**kern
*ICvox
*Ivox
*M4/4
*k[f#c#]
*D:
{8.f#
16b
16f#
16b
16f#
16e
16f#
16e
16d
16c#
4B
=1
8.b
16dd
16b
16a
16f#
16a
2b
=2
8.b
16dd
16b
16a
16f#
16a
2b}
=3
{8b
8b
8ee
16b
16a
8b
8b
8a
8f#
=4
8.b
16dd
16b
16a
8f#
8e
8f#
12a
12f#
12a
=5
8e
16f#
16a
16f#
16e
8c#
2B}
=6
{8b
16b
16dd
16b
16a
8f#
2e
=7
8.b
16dd
16b
16a
8f#
8e
8f#
4a
=8
8e
16f#
16a
16f#
16e
8c#
2B}
==
!!!AGN: Xiaodiao
!! +++ unm”gliche musikal. Struktur!!! Widerspruch zwischen
!!    musikalischem und Textsatz.
!!!ONB: ESAC (Essen Associative Code) Database: CHINA_016
!!!AMT: simple quadruple
!!!AIN: vox
!!!EED: Helmut Schaffrath
!!!EEV: 1.0
*-
